home/.icons/Gruvbox-Plus-Dark/status/48/battery-full-charged.svg

<svg width="48" height="48" version="1" xmlns="http://www.w3.org/2000/svg">
  <rect x="8" y="9" width="32" height="36" rx="2" ry="2" fill="#282828" opacity=".2"/>
  <rect x="8" y="8" width="32" height="36" rx="2" ry="2" fill="#504945"/>
  <rect x="14" y="4" width="20" height="4" fill="#7c6f64"/>
  <path d="m11 13v8h26v-8zm0 10v8h26v-8zm0 10v8h26v-8z" fill="#282828" opacity=".5"/>
  <path d="m11 12v8h26v-8zm0 10v8h26v-8zm0 10v8h26v-8z" fill="#b8bb26"/>
  <path d="m14 4v1h20v-1h-20z" fill="#ebdbb2" opacity=".2"/>
  <path d="m11 12v1h26v-1h-26zm0 10v1h26v-1h-26zm0 10v1h26v-1h-26z" fill="#ebdbb2" opacity=".2"/>
  <path d="m35.999 27c-5.539 0-9.999 4.46-9.999 10s4.4596 10 9.9991 10 9.9991-4.46 9.9991-10-4.459-10-9.999-10z" fill="#282828" opacity=".2"/>
  <path d="m35.999 26c-5.539 0-9.999 4.46-9.999 10s4.4596 10 9.9991 10 9.9991-4.46 9.9991-10-4.459-10-9.999-10z" fill="#fabd2f"/>
  <path d="m35.999 30v4h4l-5 8v-4h-4z" fill="#3c3836"/>
</svg>

<svg xmlns="http://www.w3.org/2000/svg" width="48" height="48" version="1">
 <rect style="opacity:0.2" width="32" height="36" x="8" y="9" rx="2" ry="2"/>
 <rect style="fill:#504945" width="32" height="36" x="8" y="8" rx="2" ry="2"/>
 <rect style="fill:#7c6f64" width="20" height="4" x="14" y="4"/>
 <path d="m 11,13 v 8 h 26 v -8 z m 0,10 v 8 h 26 v -8 z m 0,10 v 8 h 26 v -8 z" style="opacity:0.2"/>
 <path style="fill:#b8bb26" d="m 11,12 v 8 h 26 v -8 z m 0,10 v 8 h 26 v -8 z m 0,10 v 8 h 26 v -8 z"/>
 <path style="opacity:0.2;fill:#ebdbb2" d="m14 4v1h20v-1h-20z"/>
 <path style="fill:#ebdbb2;opacity:0.2" d="M 11 12 L 11 13 L 37 13 L 37 12 L 11 12 z M 11 22 L 11 23 L 37 23 L 37 22 L 11 22 z M 11 32 L 11 33 L 37 33 L 37 32 L 11 32 z"/>
 <path d="M 35.999,27 C 30.46,27 26,31.46 26,37 c 0,5.54 4.4596,10 9.9991,10 5.5395,0 9.9991,-4.46 9.9991,-10 0,-5.54 -4.459,-10 -9.999,-10 z" style="opacity:0.2"/>
 <path d="M 35.999,26 C 30.46,26 26,30.46 26,36 c 0,5.54 4.4596,10 9.9991,10 5.5395,0 9.9991,-4.46 9.9991,-10 0,-5.54 -4.459,-10 -9.999,-10 z" style="fill:#fabd2f"/>
 <path d="m 35.999,30 v 4 h 4 l -5,8 v -4 h -4 z" style="fill:#3c3836"/>
</svg>
